X: 389
U:~=!turn!
M:C|
L:1/8
K:G
c | {/^c}d3 g2 BGdB | Aa(ag) fdef | Tgfgd (Bc)dB | cAdc BGG :| c | BGDG (EG)DG | ABcB cedc |


